X:147
T: Cifra buda szegre van akasztva...
M: 2/4
L: 1/4
K: F
f/e/f/g/ | a/g/f | e/de/ | 
f/e/f/g/ | d/c/B | A/AG/ | 
B/A/B/c/ | d/c/B | A/AG/ | 
f/e/f/g/ | d/c/B | A/GG/ | 

